X: 22
T:The Minstrel Boy
M:C|
L:1/8
Q:1/2=75
K:D
A|D3 E GFED|F2A2 d2cd|B2A2 FGAF|E4       D3:|
A|d2c2 B2cd|c2B2 A3 A|B2F2 F2A2|Bc/B/ Ac d3
A|D3 E GFED|F2A2 d2cd|B2A2 FGAF|E4       D3|]

a Gypsy folksong from Hungary:

